icons/code-boxB.svg

<svg width="24" height="24" viewBox="0 0 24 24" fill="none" xmlns="http://www.w3.org/2000/svg">
<path d="M18.6999 17.0479V6.94788C18.6999 4.74788 16.9999 2.94788 14.8999 2.94788H9.09993C6.99993 2.94788 5.29993 4.74788 5.29993 6.94788V17.0479C5.29993 19.2479 6.99993 21.0479 9.09993 21.0479H14.8999C16.9999 21.1479 18.6999 19.3479 18.6999 17.0479ZM10.0999 12.4479C8.99993 12.4479 8.09993 11.5479 8.09993 10.4479V7.74788C8.09993 6.64788 8.99993 5.74788 10.0999 5.74788H13.7999C14.8999 5.74788 15.7999 6.64788 15.7999 7.74788V10.4479C15.7999 11.5479 14.8999 12.4479 13.7999 12.4479H10.0999Z" fill="black"/>
<path fill-rule="evenodd" clip-rule="evenodd" d="M4.54993 6.94788C4.54993 4.37169 6.54868 2.19788 9.09993 2.19788H14.8999C17.4512 2.19788 19.4499 4.37169 19.4499 6.94788V17.0479C19.4499 19.6951 17.4726 21.9101 14.8829 21.7979H9.09993C6.54868 21.7979 4.54993 19.6241 4.54993 17.0479V6.94788ZM9.09993 3.69788C7.45117 3.69788 6.04993 5.12406 6.04993 6.94788V17.0479C6.04993 18.8717 7.45117 20.2979 9.09993 20.2979H14.9178L14.9356 20.2987C16.5368 20.375 17.9499 18.9943 17.9499 17.0479V6.94788C17.9499 5.12406 16.5487 3.69788 14.8999 3.69788H9.09993ZM10.0999 6.49788C9.41414 6.49788 8.84993 7.06209 8.84993 7.74788V10.4479C8.84993 11.1337 9.41414 11.6979 10.0999 11.6979H13.7999C14.4857 11.6979 15.0499 11.1337 15.0499 10.4479V7.74788C15.0499 7.06209 14.4857 6.49788 13.7999 6.49788H10.0999ZM7.34993 7.74788C7.34993 6.23366 8.58571 4.99788 10.0999 4.99788H13.7999C15.3141 4.99788 16.5499 6.23366 16.5499 7.74788V10.4479C16.5499 11.9621 15.3141 13.1979 13.7999 13.1979H10.0999C8.58571 13.1979 7.34993 11.9621 7.34993 10.4479V7.74788Z" fill="black"/>
<path fill-rule="evenodd" clip-rule="evenodd" d="M10.1 6.49792C9.41419 6.49792 8.84998 7.06214 8.84998 7.74792V10.4479C8.84998 11.1337 9.41419 11.6979 10.1 11.6979H13.8C14.5108 11.6979 15.05 11.2091 15.05 10.4479V7.74792C15.05 7.06214 14.4858 6.49792 13.8 6.49792H10.1ZM7.34998 7.74792C7.34998 6.23371 8.58576 4.99792 10.1 4.99792H13.8C15.3142 4.99792 16.55 6.23371 16.55 7.74792V10.4479C16.55 12.0867 15.2892 13.1979 13.8 13.1979H10.1C8.58576 13.1979 7.34998 11.9621 7.34998 10.4479V7.74792Z" fill="white"/>
<path fill-rule="evenodd" clip-rule="evenodd" d="M11.3302 14.9175C11.6231 15.2104 11.6231 15.6853 11.3302 15.9782L10.5106 16.7979L11.3302 17.6175C11.6231 17.9104 11.6231 18.3853 11.3302 18.6782C11.0373 18.9711 10.5625 18.9711 10.2696 18.6782L9.26957 17.6782C8.77668 17.1853 8.77668 16.4104 9.26957 15.9175L10.2696 14.9175C10.5625 14.6247 11.0373 14.6247 11.3302 14.9175Z" fill="white"/>
<path fill-rule="evenodd" clip-rule="evenodd" d="M12.9695 14.8176C13.2624 14.5247 13.7373 14.5247 14.0302 14.8176L15.0302 15.8176C15.5231 16.3105 15.5231 17.0853 15.0302 17.5782L14.0302 18.5782C13.7373 18.8711 13.2624 18.8711 12.9695 18.5782C12.6767 18.2853 12.6767 17.8105 12.9695 17.5176L13.7892 16.6979L12.9695 15.8782C12.6767 15.5853 12.6767 15.1105 12.9695 14.8176Z" fill="white"/>
</svg>

<svg xmlns="http://www.w3.org/2000/svg" fill="none" viewBox="0 0 24 24">
  <path fill="#000" d="M18.7 17.048v-10.1c0-2.2-1.7-4-3.8-4H9.1c-2.1 0-3.8 1.8-3.8 4v10.1c0 2.2 1.7 4 3.8 4h5.8c2.1.1 3.8-1.7 3.8-4Zm-8.6-4.6c-1.1 0-2-.9-2-2v-2.7c0-1.1.9-2 2-2h3.7c1.1 0 2 .9 2 2v2.7c0 1.1-.9 2-2 2h-3.7Z"/>
  <path fill="#000" fill-rule="evenodd" d="M4.55 6.948c0-2.576 1.999-4.75 4.55-4.75h5.8c2.551 0 4.55 2.174 4.55 4.75v10.1c0 2.647-1.977 4.862-4.567 4.75H9.1c-2.551 0-4.55-2.174-4.55-4.75v-10.1Zm4.55-3.25c-1.649 0-3.05 1.426-3.05 3.25v10.1c0 1.824 1.401 3.25 3.05 3.25h5.836c1.6.077 3.014-1.304 3.014-3.25v-10.1c0-1.824-1.401-3.25-3.05-3.25H9.1Zm1 2.8c-.686 0-1.25.564-1.25 1.25v2.7c0 .686.564 1.25 1.25 1.25h3.7c.686 0 1.25-.564 1.25-1.25v-2.7c0-.686-.564-1.25-1.25-1.25h-3.7Zm-2.75 1.25a2.756 2.756 0 0 1 2.75-2.75h3.7a2.756 2.756 0 0 1 2.75 2.75v2.7a2.756 2.756 0 0 1-2.75 2.75h-3.7a2.756 2.756 0 0 1-2.75-2.75v-2.7Z" clip-rule="evenodd"/>
  <path fill="#fff" fill-rule="evenodd" d="M10.1 6.498c-.686 0-1.25.564-1.25 1.25v2.7c0 .686.564 1.25 1.25 1.25h3.7c.71 0 1.25-.489 1.25-1.25v-2.7c0-.686-.564-1.25-1.25-1.25h-3.7Zm-2.75 1.25a2.756 2.756 0 0 1 2.75-2.75h3.7a2.756 2.756 0 0 1 2.75 2.75v2.7c0 1.639-1.26 2.75-2.75 2.75h-3.7a2.756 2.756 0 0 1-2.75-2.75v-2.7Zm3.98 7.17a.75.75 0 0 1 0 1.06l-.82.82.82.82a.75.75 0 0 1-1.06 1.06l-1-1a1.233 1.233 0 0 1 0-1.76l1-1a.75.75 0 0 1 1.06 0Zm1.64-.1a.75.75 0 0 1 1.06 0l1 1a1.233 1.233 0 0 1 0 1.76l-1 1a.75.75 0 0 1-1.06-1.06l.82-.82-.82-.82a.75.75 0 0 1 0-1.06Z" clip-rule="evenodd"/>
</svg>
